images/class_icons/sawbones.svg

<svg height="400" viewBox="0 0 400 400" width="400" xmlns="http://www.w3.org/2000/svg"><path d="m337.449 96.556c-3.211.516-9.214 2.145-27.935 7.581-11.489 3.336-17.516 5.187-18.137 5.571-.145.09.259 1.719 2.001 8.056 1.768 6.431 8.494 30.254 8.578 30.38.039.058 6.213-1.668 18.267-5.11 25.062-7.155 23.569-6.806 24.625-5.75.873.873 1.686 3.553 10.467 34.511 4.032 14.214 3.623 12.534 3.206 13.195-.869 1.377-.366 1.204-20.081 6.918-15.402 4.464-21.451 6.262-21.888 6.505l-.307.17 2.654 9.649c5.456 19.841 7.941 28.463 8.278 28.723.376.29 42.251-11.878 45.685-13.276 13.632-5.549 23.197-17.952 25.887-33.57.354-2.054.345-10.092-.014-12.039-.992-5.39-12.071-44.395-15.332-53.981-1.692-4.973-4.331-9.315-8.35-13.74-7.153-7.874-17.075-12.937-27.145-13.851-2.174-.197-9.108-.159-10.459.058m-63.697 17.908c-.52.149-32.281 9.189-70.581 20.087-149.202 42.456-190.696 54.33-194.534 55.668-4.462 1.555-7.899 5.936-8.37 10.669-.254 2.555-.065 4.08 1.028 8.289 1.408 5.417 18.572 66.628 18.715 66.743.283.224 34.796 17.687 45.221 22.88 11.649 5.803 13.334 6.533 13.199 5.721-.108-.652-1.333-4.883-9.738-33.649-1.2-4.107-2.155-7.494-2.122-7.528.103-.102 9.909 4.723 31.608 15.555 24.185 12.072 27.101 13.494 27.005 13.168-.038-.127-.197-.748-.354-1.379-.158-.631-1.553-5.671-3.102-11.201-1.548-5.53-4.042-14.457-5.541-19.838s-2.757-9.897-2.795-10.035c-.115-.414-.109-.411 16.164 7.941 40.361 20.716 41.906 21.501 42.052 21.356.098-.099-1.214-4.94-6.448-23.783-2.082-7.496-4.16-15.095-4.617-16.886l-.831-3.256.475.169c.943.335 9.634 4.918 29.355 15.481 18.479 9.897 28.559 15.227 28.651 15.151.087-.073-.501-2.281-3.626-13.598-6.23-22.561-8.001-29.109-7.901-29.209.106-.106 13.236 6.593 41.985 21.42 9.455 4.876 15.699 7.974 15.787 7.832.127-.205-1.054-4.703-5.675-21.627-4.512-16.523-5.513-20.336-5.377-20.472.104-.105 10.817 5.291 30.826 15.526 16.292 8.334 26.693 13.549 26.803 13.439.239-.238-31.413-111.457-34.631-121.689-1.127-3.583-.982-3.421-2.631-2.945" fill-rule="evenodd"/></svg>

<svg id="svg" xmlns="http://www.w3.org/2000/svg" xmlns:xlink="http://www.w3.org/1999/xlink" width="400" height="400" viewBox="0, 0, 400,400"><g id="svgg"><path id="path0" d="M337.449 96.556 C 334.238 97.072,328.235 98.701,309.514 104.137 C 298.025 107.473,291.998 109.324,291.377 109.708 C 291.232 109.798,291.636 111.427,293.378 117.764 C 295.146 124.195,301.872 148.018,301.956 148.144 C 301.995 148.202,308.169 146.476,320.223 143.034 C 345.285 135.879,343.792 136.228,344.848 137.284 C 345.721 138.157,346.534 140.837,355.315 171.795 C 359.347 186.009,358.938 184.329,358.521 184.990 C 357.652 186.367,358.155 186.194,338.440 191.908 C 323.038 196.372,316.989 198.170,316.552 198.413 L 316.245 198.583 318.899 208.232 C 324.355 228.073,326.840 236.695,327.177 236.955 C 327.553 237.245,369.428 225.077,372.862 223.679 C 386.494 218.130,396.059 205.727,398.749 190.109 C 399.103 188.055,399.094 180.017,398.735 178.070 C 397.743 172.680,386.664 133.675,383.403 124.089 C 381.711 119.116,379.072 114.774,375.053 110.349 C 367.900 102.475,357.978 97.412,347.908 96.498 C 345.734 96.301,338.800 96.339,337.449 96.556 M273.752 114.464 C 273.232 114.613,241.471 123.653,203.171 134.551 C 53.969 177.007,12.475 188.881,8.637 190.219 C 4.175 191.774,0.738 196.155,0.267 200.888 C 0.013 203.443,0.202 204.968,1.295 209.177 C 2.703 214.594,19.867 275.805,20.010 275.920 C 20.293 276.144,54.806 293.607,65.231 298.800 C 76.880 304.603,78.565 305.333,78.430 304.521 C 78.322 303.869,77.097 299.638,68.692 270.872 C 67.492 266.765,66.537 263.378,66.570 263.344 C 66.673 263.242,76.479 268.067,98.178 278.899 C 122.363 290.971,125.279 292.393,125.183 292.067 C 125.145 291.940,124.986 291.319,124.829 290.688 C 124.671 290.057,123.276 285.017,121.727 279.487 C 120.179 273.957,117.685 265.030,116.186 259.649 C 114.687 254.268,113.429 249.752,113.391 249.614 C 113.276 249.200,113.282 249.203,129.555 257.555 C 169.916 278.271,171.461 279.056,171.607 278.911 C 171.705 278.812,170.393 273.971,165.159 255.128 C 163.077 247.632,160.999 240.033,160.542 238.242 L 159.711 234.986 160.186 235.155 C 161.129 235.490,169.820 240.073,189.541 250.636 C 208.020 260.533,218.100 265.863,218.192 265.787 C 218.279 265.714,217.691 263.506,214.566 252.189 C 208.336 229.628,206.565 223.080,206.665 222.980 C 206.771 222.874,219.901 229.573,248.650 244.400 C 258.105 249.276,264.349 252.374,264.437 252.232 C 264.564 252.027,263.383 247.529,258.762 230.605 C 254.250 214.082,253.249 210.269,253.385 210.133 C 253.489 210.028,264.202 215.424,284.211 225.659 C 300.503 233.993,310.904 239.208,311.014 239.098 C 311.253 238.860,279.601 127.641,276.383 117.409 C 275.256 113.826,275.401 113.988,273.752 114.464 " stroke="none" fill="#000000" fill-rule="evenodd"></path></g></svg>
